assets/message.svg

<svg xmlns="http://www.w3.org/2000/svg" viewBox="0 0 512 512"><path d="M448 0H64C28.75 0 0 28.75 0 64v288.002c0 35.25 28.75 64 64 64h96v84c0 9.836 11.023 15.477 19.125 9.625L304 416.002h144c35.25 0 64-28.75 64-64V64c0-35.25-28.75-64-64-64Zm16 352.002c0 8.75-7.25 16-16 16H288l-80 60v-60H64c-8.75 0-16-7.25-16-16V64c0-8.75 7.25-16 16-16h384c8.75 0 16 7.25 16 16v288.002Z"/></svg>

<svg xmlns="http://www.w3.org/2000/svg" viewBox="0 0 512 512"><!-- Font Awesome Pro 6.0.0-alpha2 by @fontawesome - https://fontawesome.com License - https://fontawesome.com/license (Commercial License) --><path d="M448 0H64C28.75 0 0 28.75 0 64V352.002C0 387.252 28.75 416.002 64 416.002H160V500.002C160 509.838 171.023 515.479 179.125 509.627L304 416.002H448C483.25 416.002 512 387.252 512 352.002V64C512 28.75 483.25 0 448 0ZM464 352.002C464 360.752 456.75 368.002 448 368.002H288L208 428.002V368.002H64C55.25 368.002 48 360.752 48 352.002V64C48 55.25 55.25 48 64 48H448C456.75 48 464 55.25 464 64V352.002Z"/></svg>
